X:1
T:Title
%%score 1 2 3
L:1/8
M:3/2
K:C
V:1 treble nm="Part_1"
V:2 treble-8 nm="Part_2"
V:3 treble-8 nm="Part_3"
V:1
 E4 G4 A4 | z2 A4 B2 c4 | BA B3 A A4 G2 | A4 z2 A4 A2- | A2 A2 G4 A4 | B4 c4 B3 G | B2 A3 G G4 F2 | %7
[M:4/2] G16 ||[M:3/2] c4 c2 c4 A2 | Bc dcBA A4 G2 | A4 z2 E4 G2 | A4 A2 A2 A2 A2 | B4 A2 G4 A2 | %13
 cB A4 G4 F2 |[M:4/2] G16 ||[M:3/2] z4 z4 E4 | G6 A2 B4 | c4 B6 A2 | A2 c2 B2 A4 G2 |[M:4/2] A16 || %20
[M:3/2] z4 z4 B4- | B2 d4 B2 A4 | B4 A4 A4 | G4 A4 B4 | c4 B4 A3 G | F2 E4 A4 G2 |[M:4/2] A16 || %27
[M:3/2] c8 B4 | A4 B3 c d3 c | BA B2 cB A3 G GF | A4 z2 A6 | B4 A4 G3 A | c4 B2 G2 A4 | %33
 B2 A4 G4 F2 |[M:4/2] G16 ||[M:3/2] z4 c4 c4- | c2 c2 c4 B4 | A2 c4 B2 A2 B2- | B2 A4 G2 A4 | %39
 z2 A4 G4 A2 | B3 A G2 F4 E2- | E2 z2 B4 c2 B2- | B2 A3 G G4 F2 |[M:4/2] G16 || %44
[M:3/2] G3 A Bc d4 A2 | c2 B3 A A4 G2 | A4 z2 A6 | B4 A4 G4 | ABcB A2 G4 F2 |[M:4/2] G16 || %50
[M:3/2] z4 z4 G4 | A6 G2 B4 | c2 B4 A4 G2 | A4 z2 B4 A2- | A2 A2 A4 G4 | A6 B3 A G2 | F4 E2 E4 D2 | %57
[M:4/2] E16 ||[M:3/2] z4 z4 A4 | B4 cB A3 G GF | A4 z2 A4 A2 | A4 G4 A2 A2- | A2 B3 A G3 F A2- | %63
 AG F3 E E4 D2 |[M:4/2] E16 ||[M:3/2] A4 A4 A4- | A2 A2 A4 G4 | A4 B4 c3 A | B4 c2 A4 G2 | %69
 A4 z4 z4 | E4 G4 A2 A2- | A2 A2 A4 B4- | B2 A2 G4 z4 | A4 A4 A4 | B6 A2 G4 | A3 G F2 E4 D2 | %76
[M:4/2] E16 ||[M:3/2] z4 z4 A4 | A4 B3 c dcBA | c2 B3 A A4 G2 | A4 z2 A6 | G4 A4 B3 A | %82
 GFAG FE E3 DDC |[M:4/2] E16 ||[M:2/2] F8- | F8 | F8 | D4 F4 | E8- | E4 D4- | D4 C4 | D8 | z4 F4- | %93
 F4 E4 | D8 | E8 | F8 | G4 A4- | A2 G2 G4- | G2 F2 F2 E2 | G8 | z8 |[M:3/2] z4 z4 G4 | G6 G2 G4 | %104
 A6 F4 G2- | GF ED F2 E4 D2 |[M:4/2] E16 ||[M:3/2] F6 D4 F2 | EF GFED D4 C2 | D4 z2 C4 D2 | %110
 F2 E3 D D3 C CB, | D4 z2 G2 G2 G2 | G2 A4 F4 G2- | GF F3 E E3 DDC |[M:4/2] E16 || %115
[M:3/2] E4 G2 A4 A2 | A2 A2 A2 G3 A B2 | c3 ABc A4 G2 | A4 z2 A4 A2 | A2 G2 A2 A2 B3 A | %120
 GF E3 D A4 G2 |[M:4/2] A16 ||[M:3/2] A4 A2 A2 A2 G2- | GA B2 c3 G A2 c2 | B3 A A4 G2 A2- | %125
 A2 z2 A4 G2 A2- | A2 c2 B3 G A3 G | F2 E4 D4 z2 | c2 B3 A A3 G GF |[M:4/2] A16 |] %130
V:2
 E4 B4 A4 | D4 F2 G2 A4 | B2 d4 c2 B4 | A4 D4 D4 | F4 E4 D4 | d4 A4 G4 | B2 c4 B2 A4 | %7
[M:4/2] G16 ||[M:3/2] c4 e4 d3 c | B2 G4 A2 B4 | A8 c4 | c2 c4 c4 A2 | G4 c4 B2 A2- | A2 c4 G2 A4 | %14
[M:4/2] G16 ||[M:3/2] z4 z4 E4- | E2 F2 G6 F2 | A4 d8 | c2 A2 G2 A2 B4 |[M:4/2] A16 || %20
[M:3/2] z4 z4 B4 | d4 G4 z2 c2 | d4 c2 A4 c2- | c2 B2 A3 F G4 | A4 z2 E2 F3 G | A2 G2 A2 c2 B4 | %26
[M:4/2] A16 ||[M:3/2] c4 e4 d4 | c2 A2 G8 | d4 c2 A2 B4 | A4 c4 A4 | G4 z2 c2 B2 G2 | A4 G2 c4 A2 | %33
 G2 c4 B2 A4 |[M:4/2] G16 ||[M:3/2] z4 c4 e4- | e2 e2 A4 G4 | A4 e2 d3 c d2- | d2 A2 B4 A4 | %39
 c4 c8 | G4 Bc d4 e2- | ed c2 B4 A4 | G2 c4 B2 A4 |[M:4/2] G16 ||[M:3/2] G8 B2 c2- | c2 d4 c2 B4 | %46
 A4 c4 A4 | G4 z2 c4 B2 | A4 c2 G2 A4 |[M:4/2] G16 ||[M:3/2] z4 z4 G4 | c8 d4 | e2 d4 A2 B4 | %53
 A4 E4 G2 A2- | A2 c4 A2 c4 | c2 A4 G4 E2 | D2 A4 G2 F4 |[M:4/2] E16 ||[M:3/2] z4 z4 A4 | %59
 d4 e2 c2 B4 | A4 c4 A2 c2- | c2 c2 B4 A4 | F2 E8 D2- | D2 A4 G2 F4 |[M:4/2] E16 || %65
[M:3/2] A4 c4 c4- | c2 c2 c4 B4 | A4 G4 A4 | E4 A4 B4 | A2 c4 d2 B4 | A4 E4 c4 | A2 c4 A2 G4 | %72
 z4 B6 A2 | A6 c4 A2 | G8 E4 | D2 A4 G2 F4 |[M:4/2] E16 ||[M:3/2] z4 z4 A4 | A4 E4 B4 | %79
 A2 d4 c2 B4 | A4 c4 A2 c2- | c2 B2 A4 G3 F | E2 D2 A2 G2 F4 |[M:4/2] E16 ||[M:2/2] F8 | A8- | %86
 A4 F4- | F4 A4 | G8- | G4 D4 | E8 | D8 | z4 A4- | A4 G4 | F8 | G8 | A8 | B4 c4- | c4 B4 | A8 | %100
 G8 | z8 |[M:3/2] z4 z4 C4 | C6 C2 E4 | F4 A6 G2- | G2 G2 A2 G2 F4 |[M:4/2] E16 ||[M:3/2] F8 F4 | %108
 C6 F2 E4 | D4 F4 E2 F2- | F2 C4 D2 E4 | D4 C4 C2 C2- | C2 F6 A2 G2- | G2 A3 E G2 F4 | %114
[M:4/2] E16 ||[M:3/2] E4 B2 A4 D2 | D2 A2 A2 B4 G2 | A4 d2 c2 B4 | A4 c4 c2 A2 | c2 B2 A2 A2 G4 | %120
 E2 A4 c2 B4 |[M:4/2] A16 ||[M:3/2] A4 F2 D2 D2 E2- | E2 G2 A4 c2 e2 | d4 c2 B4 A2- | %125
 A2 c2 A2 c6- | c2 A2 G4 A3 B | d4 c2 d4 c2 | A2 G4 c2 B4 |[M:4/2] A16 |] %130
V:3
 B4 E4 e4 | d4 c2 B2 F4 | G2 D2 G2 A2 E4 | e4 d4 d3 c | A4 B2 c2 d4 | G4 z2 c2 d2 B2 | %6
 G2 A2 F2 G2 D4 |[M:4/2] d16 ||[M:3/2] c4 A2 G4 z2 | G2 B3 c e4 d2 | e8 z2 e2- | e2 e2 e4 e3 c | %12
 d4 e4 d2 e2- | e2 A2 F2 G2 D4 |[M:4/2] d16 ||[M:3/2] z4 z4 B4 | e4 d4 B4 | z2 A2 B4 G4 | %18
 A2 F2 G2 F2 E4 |[M:4/2] e16 ||[M:3/2] z4 z4 E4 | B4 d4 c2 A2 | G4 A4 c2 e2 | c2 d2 e3 d d4 | %24
 z2 c2 e4 d3 c | c3 B c2 A2 E4 |[M:4/2] e16 ||[M:3/2] c8 F4 | A2 c2 d4 g3 e | f4 e2 e4 d2 | %30
 e4 A4 z2 e2 | g4 f2 e2 z2 d2 | f3 e g4 e4 | gf e3 d d4 c2 |[M:4/2] d16 ||[M:3/2] z4 c4 A4- | %36
 A2 A2 c4 d4 | c2 A4 B2 F2 B2 | A2 E4 e4 e2- | e2 A2 e6 d2- | d4 B4 E4 | A2 B2 d4 e2 f2 | %42
 g4 e2 d4 c2 |[M:4/2] d16 ||[M:3/2] d8 d2 A2- | A2 G4 A2 E4 | e4 e4 e2 f2 | g4 f2 e4 d2 | %48
 e2 f2 e2 d4 c2 |[M:4/2] d16 ||[M:3/2] z4 z4 d4 | A8 G4 | c2 G2 B2 A2 E4 | e4 edcB e4 | %54
 c2 A4 c4 e2- | e2 z2 c2 d4 (c2 | d)c c4 B4 A2 |[M:4/2] B16 ||[M:3/2] z4 z4 A4 | G4 c4 d3 c | %60
 e4 A4 e4 | e4 d4 c4 | d2 edcB c4 z2 | d2 c4 B4 A2 |[M:4/2] B16 ||[M:3/2] A4 e4 e4- | e2 e2 e4 d4 | %67
 c4 d4 z2 c2- | c2 e4 A2 E4 | z2 A4 B2 E4 | z4 B4 A4 | c4 A4 d3 c | B4 z4 d3 c | c4 A4 c4 | %74
 B4 d4 c2 B2 | d2 c3 B B4 A2 |[M:4/2] B16 ||[M:3/2] z4 z4 A4 | c4 B3 A G4 | A2 B2 G2 A2 E4 | %80
 e4 A4 c4 | z4 c4 B4 | c2 d2 c2 B4 A2 |[M:4/2] B16 ||[M:2/2] z8 | z8 | z8 | z8 | z8 | z8 | z8 | %91
 z8 | z8 | z8 | z8 | z8 | z8 | z8 | z8 | z8 | z8 | z8 |[M:3/2] z4 z4 c4 | c6 c2 B4 | A4 z2 F4 E2 | %105
 B4 c2 B4 A2 |[M:4/2] B16 ||[M:3/2] c4 A6 c2- | c2 G4 A4 G2 | A4 D2 F2 G2 A2 | F2 G4 F2 G4 | %111
 A2 B2 c4 c4 | c4 A4 F2 C2- | C2 F3 G B4 A2 |[M:4/2] B16 ||[M:3/2] B4 E2 F4 A2 | A2 c2 c2 d6 | %117
 c4 G2 A2 d4 | e4 A4 e4 | e2 d2 c2 c2 d4 | e4 c2 A2 E4 |[M:4/2] e16 ||[M:3/2] A4 c2 d2 c2 B2- | %123
 B4 c2 A6 | B2 G2 A2 E4 e2- | e2 A4 e4 e2- | ed c2 d4 z4 | D4 A2 D4 A2 | Bc d2 B2 A2 E4 | %129
[M:4/2] e16 |] %130

